X: 34329
T: Return Of Spring, The
R: barndance
M: 4/4
K: Gmajor
M:2/4
|:d>e dB|G2 GD|GB/d/ ed|c2 cB|
[1 cd cA|F2 F2|dB/4^c/4d/ ed|B2 Bc:|
[2 Af f/e/f|Ae e/d/e|dB cA|G2 Gd||
|:g>g ge|f>f fd|ed Bc|d2 dB|GB/4^c/4d/ ed|
[1 A2 A2|dB/4^c/4d/ ed|B2 Bd:|2 A>A Ag|fd ef|g2 ge||
|:dd g>f|ee a>g|fd ef|ed Bc|
dd g>f|ee a>g|fd ef|g2 ge:|

